;Generated with Cura_SteamEngine 15.01
; Default start code
G28 ; Home extruder
G1 Z15 F100
M107 ; Turn off fan
G90 ; Absolute positioning
M82 ; Extruder in absolute mode
M190 S50
; Activate all used extruder
M104 T0 S210
G92 E0 ; Reset extruder position
; Wait for all used extruders to reach temperature
M109 T0 S210
;Layer count: 70
;LAYER:0
M107
G0 F9000 X109.048 Y27.446 Z0.300
;TYPE:SKIRT
G1 F1800 X123.355 Y27.446 E0.71378
G1 X123.355 Y100.847 E4.37577
G1 X109.048 Y100.847 E5.08955
G1 X109.048 Y83.447 E5.95764
G1 X112.048 Y83.447 E6.10731
G1 X112.048 Y44.846 E8.03312
G1 X109.048 Y44.846 E8.18279
G1 X109.048 Y27.446 E9.05088
G1 F2400 E5.05088
G0 F9000 X112.848 Y31.246
;TYPE:WALL-INNER
G1 F2400 E9.05088
G1 F1800 X119.555 Y31.246 E9.38549
G1 X119.555 Y97.047 E12.66832
G1 X112.848 Y97.047 E13.00293
G1 X112.848 Y87.247 E13.49186
G1 X115.848 Y87.247 E13.64153
G1 X115.848 Y41.046 E15.94651
G1 X112.848 Y41.046 E16.09618
G1 X112.848 Y31.246 E16.58510
G0 F9000 X112.448 Y30.846
;TYPE:WALL-OUTER
G1 F1800 X119.955 Y30.846 E16.95963
G1 X119.955 Y97.447 E20.28236
G1 X112.448 Y97.447 E20.65689
G1 X112.448 Y86.847 E21.18572
G1 X115.448 Y86.847 E21.33540
G1 X115.448 Y41.446 E23.60046
G1 X112.448 Y41.446 E23.75013
G1 X112.448 Y30.846 E24.27897
G0 F9000 X113.127 Y31.386
;TYPE:SKIN
G1 F1800 X119.414 Y37.672 E24.72251
G0 F9000 X119.414 Y38.238
G1 F1800 X112.987 Y31.811 E25.17597
G0 F9000 X112.987 Y32.377
G1 F1800 X119.414 Y38.803 E25.62940
G0 F9000 X119.414 Y39.369
G1 F1800 X112.987 Y32.942 E26.08286
G0 F9000 X112.987 Y33.508
G1 F1800 X119.414 Y39.935 E26.53632
G0 F9000 X119.414 Y40.500
G1 F1800 X112.987 Y34.074 E26.98974
G0 F9000 X112.987 Y34.639
G1 F1800 X119.414 Y41.066 E27.44320
G0 F9000 X119.414 Y41.632
G1 F1800 X112.987 Y35.205 E27.89666
G0 F9000 X112.987 Y35.771
G1 F1800 X119.414 Y42.198 E28.35012
G0 F9000 X119.414 Y42.763
G1 F1800 X112.987 Y36.336 E28.80358
G0 F9000 X112.987 Y36.902
G1 F1800 X119.414 Y43.329 E29.25704
G0 F9000 X119.414 Y43.895
G1 F1800 X112.987 Y37.468 E29.71050
G0 F9000 X112.987 Y38.033
G1 F1800 X115.859 Y40.906 E29.91317
G0 F9000 X115.986 Y41.033
G1 F1800 X119.414 Y44.460 E30.15500
G0 F9000 X119.414 Y45.026
G1 F1800 X115.986 Y41.599 E30.39683
G0 F9000 X115.986 Y42.164
G1 F1800 X119.414 Y45.592 E30.63869
G0 F9000 X119.414 Y46.157
G1 F1800 X115.986 Y42.730 E30.88052
G0 F9000 X115.986 Y43.296
G1 F1800 X119.414 Y46.723 E31.12235
G0 F9000 X119.414 Y47.289
G1 F1800 X115.986 Y43.861 E31.36421
G0 F9000 X115.986 Y44.427
G1 F1800 X119.414 Y47.854 E31.60604
G0 F9000 X119.414 Y48.420
G1 F1800 X115.986 Y44.993 E31.84787
G0 F9000 X115.986 Y45.558
G1 F1800 X119.414 Y48.986 E32.08973
G0 F9000 X119.414 Y49.551
G1 F1800 X115.986 Y46.124 E32.33156
G0 F9000 X115.986 Y46.690
G1 F1800 X119.414 Y50.117 E32.57339
G0 F9000 X119.414 Y50.683
G1 F1800 X115.986 Y47.255 E32.81525
G0 F9000 X115.986 Y47.821
G1 F1800 X119.414 Y51.248 E33.05708
G0 F9000 X119.414 Y51.814
G1 F1800 X115.986 Y48.387 E33.29891
G0 F9000 X115.986 Y48.953
G1 F1800 X119.414 Y52.380 E33.54074
G0 F9000 X119.414 Y52.946
G1 F1800 X115.986 Y49.518 E33.78260
G0 F9000 X115.986 Y50.084
G1 F1800 X119.414 Y53.511 E34.02443
G0 F9000 X119.414 Y54.077
G1 F1800 X115.986 Y50.650 E34.26626
G0 F9000 X115.986 Y51.215
G1 F1800 X119.414 Y54.643 E34.50812
G0 F9000 X119.414 Y55.208
G1 F1800 X115.986 Y51.781 E34.74995
G0 F9000 X115.986 Y52.347
G1 F1800 X119.414 Y55.774 E34.99178
G0 F9000 X119.414 Y56.340
G1 F1800 X115.986 Y52.912 E35.23365
G0 F9000 X115.986 Y53.478
G1 F1800 X119.414 Y56.905 E35.47547
G0 F9000 X119.414 Y57.471
G1 F1800 X115.986 Y54.044 E35.71730
G0 F9000 X115.986 Y54.609
G1 F1800 X119.414 Y58.037 E35.95917
G0 F9000 X119.414 Y58.602
G1 F1800 X115.986 Y55.175 E36.20100
G0 F9000 X115.986 Y55.741
G1 F1800 X119.414 Y59.168 E36.44282
G0 F9000 X119.414 Y59.734
G1 F1800 X115.986 Y56.306 E36.68469
G0 F9000 X115.986 Y56.872
G1 F1800 X119.414 Y60.299 E36.92652
G0 F9000 X119.414 Y60.865
G1 F1800 X115.986 Y57.438 E37.16835
G0 F9000 X115.986 Y58.003
G1 F1800 X119.414 Y61.431 E37.41021
G0 F9000 X119.414 Y61.997
G1 F1800 X115.986 Y58.569 E37.65207
G0 F9000 X115.986 Y59.135
G1 F1800 X119.414 Y62.562 E37.89390
G0 F9000 X119.414 Y63.128
G1 F1800 X115.986 Y59.701 E38.13573
G0 F9000 X115.789 Y41.105
G0 X115.293 Y40.906
G1 F1800 X112.987 Y38.599 E38.29847
G0 F9000 X112.987 Y39.165
G1 F1800 X114.728 Y40.906 E38.42130
G0 F9000 X114.162 Y40.906
G1 F1800 X112.987 Y39.730 E38.50424
G0 F9000 X119.414 Y37.106
G1 F1800 X113.693 Y31.386 E38.90785
G0 F9000 X114.259 Y31.386
G1 F1800 X119.414 Y36.541 E39.27157
G0 F9000 X119.414 Y35.975
G1 F1800 X114.824 Y31.386 E39.59538
G0 F9000 X115.390 Y31.386
G1 F1800 X119.414 Y35.409 E39.87926
G0 F9000 X119.414 Y34.844
G1 F1800 X115.956 Y31.386 E40.12324
G0 F9000 X116.522 Y31.386
G1 F1800 X119.414 Y34.278 E40.32729
G0 F9000 X119.414 Y33.712
G1 F1800 X117.087 Y31.386 E40.49143
G0 F9000 X117.653 Y31.386
G1 F1800 X119.414 Y33.147 E40.61568
G0 F9000 X119.414 Y32.581
G1 F1800 X118.219 Y31.386 E40.70000
G0 F9000 X118.784 Y31.386
G1 F1800 X119.414 Y32.015 E40.74441
G0 F9000 X119.414 Y31.449
G1 F1800 X119.350 Y31.386 E40.74889
G0 F9000 X112.987 Y40.296
G1 F1800 X113.596 Y40.906 E40.79189
G0 F9000 X115.789 Y41.105
G0 X115.986 Y60.266
G1 F1800 X119.414 Y63.694 E41.03376
G0 F9000 X119.414 Y64.259
G1 F1800 X115.986 Y60.832 E41.27559
G0 F9000 X115.986 Y61.398
G1 F1800 X119.414 Y64.825 E41.51742
G0 F9000 X119.414 Y65.391
G1 F1800 X115.986 Y61.963 E41.75928
G0 F9000 X115.986 Y62.529
G1 F1800 X119.414 Y65.956 E42.00111
G0 F9000 X119.414 Y66.522
G1 F1800 X115.986 Y63.095 E42.24294
G0 F9000 X115.986 Y63.660
G1 F1800 X119.414 Y67.088 E42.48480
G0 F9000 X119.414 Y67.653
G1 F1800 X115.986 Y64.226 E42.72663
G0 F9000 X115.986 Y64.792
G1 F1800 X119.414 Y68.219 E42.96846
G0 F9000 X119.414 Y68.785
G1 F1800 X115.986 Y65.357 E43.21032
G0 F9000 X115.986 Y65.923
G1 F1800 X119.414 Y69.350 E43.45215
G0 F9000 X119.414 Y69.916
G1 F1800 X115.986 Y66.489 E43.69398
G0 F9000 X115.986 Y67.054
G1 F1800 X119.414 Y70.482 E43.93584
G0 F9000 X119.414 Y71.047
G1 F1800 X115.986 Y67.620 E44.17767
G0 F9000 X115.986 Y68.186
G1 F1800 X119.414 Y71.613 E44.41950
G0 F9000 X119.414 Y72.179
G1 F1800 X115.986 Y68.751 E44.66136
G0 F9000 X115.986 Y69.317
G1 F1800 X119.414 Y72.745 E44.90323
G0 F9000 X119.414 Y73.310
G1 F1800 X115.986 Y69.883 E45.14506
G0 F9000 X115.986 Y70.449
G1 F1800 X119.414 Y73.876 E45.38689
G0 F9000 X119.414 Y74.442
G1 F1800 X115.986 Y71.014 E45.62875
G0 F9000 X115.986 Y71.580
G1 F1800 X119.414 Y75.007 E45.87058
G0 F9000 X119.414 Y75.573
G1 F1800 X115.986 Y72.146 E46.11241
G0 F9000 X115.986 Y72.711
G1 F1800 X119.414 Y76.139 E46.35427
G0 F9000 X119.414 Y76.704
G1 F1800 X115.986 Y73.277 E46.59610
G0 F9000 X115.986 Y73.843
G1 F1800 X119.414 Y77.270 E46.83793
G0 F9000 X119.414 Y77.836
G1 F1800 X115.986 Y74.408 E47.07979
G0 F9000 X115.986 Y74.974
G1 F1800 X119.414 Y78.401 E47.32162
G0 F9000 X119.414 Y78.967
G1 F1800 X115.986 Y75.540 E47.56345
G0 F9000 X115.986 Y76.105
G1 F1800 X119.414 Y79.533 E47.80531
G0 F9000 X119.414 Y80.098
G1 F1800 X115.986 Y76.671 E48.04714
G0 F9000 X115.986 Y77.237
G1 F1800 X119.414 Y80.664 E48.28897
G0 F9000 X119.414 Y81.230
G1 F1800 X115.986 Y77.802 E48.53083
G0 F9000 X115.986 Y78.368
G1 F1800 X119.414 Y81.795 E48.77266
G0 F9000 X119.414 Y82.361
G1 F1800 X115.986 Y78.934 E49.01449
G0 F9000 X115.986 Y79.500
G1 F1800 X119.414 Y82.927 E49.25632
G0 F9000 X119.414 Y83.493
G1 F1800 X115.986 Y80.065 E49.49818
G0 F9000 X115.986 Y80.631
G1 F1800 X119.414 Y84.058 E49.74001
G0 F9000 X119.414 Y84.624
G1 F1800 X115.986 Y81.197 E49.98184
G0 F9000 X115.986 Y81.762
G1 F1800 X119.414 Y85.190 E50.22371
G0 F9000 X119.414 Y85.755
G1 F1800 X115.986 Y82.328 E50.46553
G0 F9000 X115.986 Y82.894
G1 F1800 X119.414 Y86.321 E50.70736
G0 F9000 X119.414 Y86.887
G1 F1800 X115.986 Y83.459 E50.94923
G0 F9000 X115.986 Y84.025
G1 F1800 X119.414 Y87.452 E51.19106
G0 F9000 X119.414 Y88.018
G1 F1800 X115.986 Y84.591 E51.43288
G0 F9000 X115.986 Y85.156
G1 F1800 X119.414 Y88.584 E51.67475
G0 F9000 X119.414 Y89.149
G1 F1800 X115.986 Y85.722 E51.91658
G0 F9000 X115.986 Y86.288
G1 F1800 X119.414 Y89.715 E52.15841
G0 F9000 X119.414 Y90.281
G1 F1800 X115.986 Y86.853 E52.40027
G0 F9000 X115.954 Y87.387
G1 F1800 X119.414 Y90.846 E52.64436
G0 F9000 X119.414 Y91.412
G1 F1800 X115.388 Y87.387 E52.92838
G0 F9000 X114.822 Y87.387
G1 F1800 X119.414 Y91.978 E53.25233
G0 F9000 X119.414 Y92.544
G1 F1800 X114.257 Y87.387 E53.61619
G0 F9000 X113.691 Y87.387
G1 F1800 X119.414 Y93.109 E54.01994
G0 F9000 X119.414 Y93.675
G1 F1800 X113.125 Y87.387 E54.46363
G0 F9000 X112.987 Y87.814
G1 F1800 X119.414 Y94.241 E54.91709
G0 F9000 X119.414 Y94.806
G1 F1800 X112.987 Y88.379 E55.37055
G0 F9000 X112.987 Y88.945
G1 F1800 X119.414 Y95.372 E55.82401
G0 F9000 X119.414 Y95.938
G1 F1800 X112.987 Y89.511 E56.27746
G0 F9000 X112.987 Y90.076
G1 F1800 X119.414 Y96.503 E56.73092
G0 F9000 X119.251 Y96.906
G1 F1800 X112.987 Y90.642 E57.17288
G0 F9000 X112.987 Y91.208
G1 F1800 X118.685 Y96.906 E57.57491
G0 F9000 X118.120 Y96.906
G1 F1800 X112.987 Y91.773 E57.93707
G0 F9000 X112.987 Y92.339
G1 F1800 X117.554 Y96.906 E58.25930
G0 F9000 X116.988 Y96.906
G1 F1800 X112.987 Y92.905 E58.54159
G0 F9000 X112.987 Y93.471
G1 F1800 X116.423 Y96.906 E58.78398
G0 F9000 X115.857 Y96.906
G1 F1800 X112.987 Y94.036 E58.98647
G0 F9000 X112.987 Y94.602
G1 F1800 X115.291 Y96.906 E59.14903
G0 F9000 X114.725 Y96.906
G1 F1800 X112.987 Y95.168 E59.27166
G0 F9000 X112.987 Y95.733
G1 F1800 X114.160 Y96.906 E59.35442
G0 F9000 X113.594 Y96.906
G1 F1800 X112.987 Y96.299 E59.39725
;LAYER:1
M106 S63
G0 F9000 X112.848 Y97.047 Z0.500
;TYPE:WALL-INNER
G1 F1920 X112.848 Y87.247 E59.72320
G1 X115.848 Y87.247 E59.82298
G1 X115.848 Y41.046 E61.35963
G1 X112.848 Y41.046 E61.45941
G1 X112.848 Y31.246 E61.78536
G1 X119.655 Y31.246 E62.01176
G1 X119.655 Y97.047 E64.20031
G1 X112.848 Y97.047 E64.42671
G0 F9000 X112.448 Y97.447
;TYPE:WALL-OUTER
G1 F1740 X112.448 Y86.847 E64.77927
G1 X115.448 Y86.847 E64.87905
G1 X115.448 Y41.446 E66.38909
G1 X112.448 Y41.446 E66.48887
G1 X112.448 Y30.846 E66.84143
G1 X120.055 Y30.846 E67.09444
G1 X120.055 Y97.447 E69.30960
G1 X112.448 Y97.447 E69.56261
G0 F9000 X113.244 Y96.907
;TYPE:SKIN
G1 F1740 X119.514 Y90.637 E69.85753
G0 F9000 X119.514 Y91.203
G1 F1740 X113.810 Y96.907 E70.12583
G0 F9000 X114.375 Y96.907
G1 F1740 X119.514 Y91.769 E70.36753
G0 F9000 X119.514 Y92.334
G1 F1740 X114.941 Y96.907 E70.58263
G0 F9000 X115.507 Y96.907
G1 F1740 X119.514 Y92.900 E70.77111
G0 F9000 X119.514 Y93.466
G1 F1740 X116.072 Y96.907 E70.93298
G0 F9000 X116.638 Y96.907
G1 F1740 X119.514 Y94.031 E71.06826
G0 F9000 X119.514 Y94.597
G1 F1740 X117.204 Y96.907 E71.17692
G0 F9000 X117.770 Y96.907
G1 F1740 X119.514 Y95.163 E71.25895
G0 F9000 X119.514 Y95.728
G1 F1740 X118.335 Y96.907 E71.31441
G0 F9000 X118.901 Y96.907
G1 F1740 X119.514 Y96.294 E71.34324
G0 F9000 X119.514 Y90.071
G1 F1740 X112.987 Y96.599 E71.65027
G0 F9000 X112.987 Y96.033
G1 F1740 X119.514 Y89.506 E71.95728
G0 F9000 X119.514 Y88.940
G1 F1740 X112.987 Y95.467 E72.26429
G0 F9000 X112.987 Y94.902
G1 F1740 X119.514 Y88.374 E72.57133
G0 F9000 X119.514 Y87.809
G1 F1740 X112.987 Y94.336 E72.87834
G0 F9000 X112.987 Y93.770
G1 F1740 X119.514 Y87.243 E73.18535
G0 F9000 X119.514 Y86.677
G1 F1740 X112.987 Y93.205 E73.49238
G0 F9000 X112.987 Y92.639
G1 F1740 X119.514 Y86.112 E73.79939
G0 F9000 X119.514 Y85.546
G1 F1740 X112.987 Y92.073 E74.10640
G0 F9000 X112.987 Y91.508
G1 F1740 X119.514 Y84.980 E74.41343
G0 F9000 X119.514 Y84.415
G1 F1740 X112.987 Y90.942 E74.72044
G0 F9000 X112.987 Y90.376
G1 F1740 X115.976 Y87.387 E74.86104
G0 F9000 X115.986 Y87.377
G1 F1740 X119.514 Y83.849 E75.02698
G0 F9000 X119.514 Y83.283
G1 F1740 X115.986 Y86.811 E75.19293
G0 F9000 X115.986 Y86.245
G1 F1740 X119.514 Y82.718 E75.35885
G0 F9000 X119.514 Y82.152
G1 F1740 X115.986 Y85.680 E75.52480
G0 F9000 X115.986 Y85.114
G1 F1740 X119.514 Y81.586 E75.69075
G0 F9000 X119.514 Y81.021
G1 F1740 X115.986 Y84.548 E75.85667
G0 F9000 X115.986 Y83.983
G1 F1740 X119.514 Y80.455 E76.02262
G0 F9000 X119.514 Y79.889
G1 F1740 X115.986 Y83.417 E76.18856
G0 F9000 X115.986 Y82.851
G1 F1740 X119.514 Y79.323 E76.35451
G0 F9000 X119.514 Y78.758
G1 F1740 X115.986 Y82.286 E76.52045
G0 F9000 X115.986 Y81.720
G1 F1740 X119.514 Y78.192 E76.68640
G0 F9000 X119.514 Y77.626
G1 F1740 X115.986 Y81.154 E76.85235
G0 F9000 X115.986 Y80.588
G1 F1740 X119.514 Y77.061 E77.01827
G0 F9000 X119.514 Y76.495
G1 F1740 X115.986 Y80.023 E77.18422
G0 F9000 X115.789 Y87.188
G0 X115.411 Y87.387
G1 F1740 X112.987 Y89.811 E77.29823
G0 F9000 X112.987 Y89.245
G1 F1740 X114.845 Y87.387 E77.38563
G0 F9000 X114.279 Y87.387
G1 F1740 X112.987 Y88.679 E77.44640
G0 F9000 X112.987 Y88.113
G1 F1740 X113.714 Y87.387 E77.48057
G0 F9000 X113.148 Y87.387
G1 F1740 X112.987 Y87.548 E77.48815
G0 F9000 X115.789 Y87.188
G0 X115.986 Y79.457
G1 F1740 X119.514 Y75.929 E77.65409
G0 F9000 X119.514 Y75.364
G1 F1740 X115.986 Y78.891 E77.82001
G0 F9000 X115.986 Y78.326
G1 F1740 X119.514 Y74.798 E77.98596
G0 F9000 X119.514 Y74.232
G1 F1740 X115.986 Y77.760 E78.15191
G0 F9000 X115.986 Y77.194
G1 F1740 X119.514 Y73.667 E78.31783
G0 F9000 X119.514 Y73.101
G1 F1740 X115.986 Y76.629 E78.48378
G0 F9000 X115.986 Y76.063
G1 F1740 X119.514 Y72.535 E78.64972
G0 F9000 X119.514 Y71.970
G1 F1740 X115.986 Y75.497 E78.81565
G0 F9000 X115.986 Y74.932
G1 F1740 X119.514 Y71.404 E78.98159
G0 F9000 X119.514 Y70.838
G1 F1740 X115.986 Y74.366 E79.14754
G0 F9000 X115.986 Y73.800
G1 F1740 X119.514 Y70.272 E79.31348
G0 F9000 X119.514 Y69.707
G1 F1740 X115.986 Y73.235 E79.47943
G0 F9000 X115.986 Y72.669
G1 F1740 X119.514 Y69.141 E79.64538
G0 F9000 X119.514 Y68.575
G1 F1740 X115.986 Y72.103 E79.81132
G0 F9000 X115.986 Y71.537
G1 F1740 X119.514 Y68.010 E79.97725
G0 F9000 X119.514 Y67.444
G1 F1740 X115.986 Y70.972 E80.14319
G0 F9000 X115.986 Y70.406
G1 F1740 X119.514 Y66.878 E80.30914
G0 F9000 X119.514 Y66.313
G1 F1740 X115.986 Y69.840 E80.47506
G0 F9000 X115.986 Y69.275
G1 F1740 X119.514 Y65.747 E80.64101
G0 F9000 X119.514 Y65.181
G1 F1740 X115.986 Y68.709 E80.80695
G0 F9000 X115.986 Y68.143
G1 F1740 X119.514 Y64.616 E80.97288
G0 F9000 X119.514 Y64.050
G1 F1740 X115.986 Y67.578 E81.13882
G0 F9000 X115.986 Y67.012
G1 F1740 X119.514 Y63.484 E81.30477
G0 F9000 X119.514 Y62.919
G1 F1740 X115.986 Y66.446 E81.47069
G0 F9000 X115.986 Y65.881
G1 F1740 X119.514 Y62.353 E81.63664
G0 F9000 X119.514 Y61.787
G1 F1740 X115.986 Y65.315 E81.80258
G0 F9000 X115.986 Y64.749
G1 F1740 X119.514 Y61.222 E81.96851
G0 F9000 X119.514 Y60.656
G1 F1740 X115.986 Y64.184 E82.13445
G0 F9000 X115.986 Y63.618
G1 F1740 X119.514 Y60.090 E82.30040
G0 F9000 X119.514 Y59.524
G1 F1740 X115.986 Y63.052 E82.46635
G0 F9000 X115.986 Y62.487
G1 F1740 X119.514 Y58.959 E82.63229
G0 F9000 X119.514 Y58.393
G1 F1740 X115.986 Y61.921 E82.79824
G0 F9000 X115.986 Y61.355
G1 F1740 X119.514 Y57.827 E82.96419
G0 F9000 X119.514 Y57.262
G1 F1740 X115.986 Y60.789 E83.13011
G0 F9000 X115.986 Y60.224
G1 F1740 X119.514 Y56.696 E83.29605
G0 F9000 X119.514 Y56.130
G1 F1740 X115.986 Y59.658 E83.46200
G0 F9000 X115.986 Y59.092
G1 F1740 X119.514 Y55.565 E83.62792
G0 F9000 X119.514 Y54.999
G1 F1740 X115.986 Y58.527 E83.79387
G0 F9000 X115.986 Y57.961
G1 F1740 X119.514 Y54.433 E83.95982
G0 F9000 X119.514 Y53.868
G1 F1740 X115.986 Y57.395 E84.12574
G0 F9000 X115.986 Y56.830
G1 F1740 X119.514 Y53.302 E84.29168
G0 F9000 X119.514 Y52.736
G1 F1740 X115.986 Y56.264 E84.45763
G0 F9000 X115.986 Y55.698
G1 F1740 X119.514 Y52.171 E84.62355
G0 F9000 X119.514 Y51.605
G1 F1740 X115.986 Y55.133 E84.78950
