; G-Code generated by Simplify3D(R) Version 4.1.0
; Nov 15, 2018 at 10:28:43 AM
; Settings Summary
;   processName,Process1
;   applyToModels,fittingclip
;   profileName,Creality Ender 3 (modified)
;   profileVersion,2018-08-29 11:28:08
;   baseProfile,
;   printMaterial,PLA
;   printQuality,Medium
;   printExtruders,
;   extruderName,Primary Extruder
;   extruderToolheadNumber,0
;   extruderDiameter,0.4
;   extruderAutoWidth,0
;   extruderWidth,0.35
;   extrusionMultiplier,1.15
;   extruderUseRetract,1
;   extruderRetractionDistance,4
;   extruderExtraRestartDistance,0
;   extruderRetractionZLift,0
;   extruderRetractionSpeed,2400
;   extruderUseCoasting,0
;   extruderCoastingDistance,0.2
;   extruderUseWipe,0
;   extruderWipeDistance,5
;   primaryExtruder,0
;   layerHeight,0.2
;   topSolidLayers,3
;   bottomSolidLayers,3
;   perimeterOutlines,2
;   printPerimetersInsideOut,1
;   startPointOption,2
;   startPointOriginX,0
;   startPointOriginY,0
;   sequentialIslands,0
;   spiralVaseMode,0
;   firstLayerHeightPercentage,120
;   firstLayerWidthPercentage,150
;   firstLayerUnderspeed,0.5
;   useRaft,0
;   raftExtruder,0
;   raftTopLayers,3
;   raftBaseLayers,2
;   raftOffset,3
;   raftSeparationDistance,0.14
;   raftTopInfill,100
;   aboveRaftSpeedMultiplier,0.3
;   useSkirt,1
;   skirtExtruder,0
;   skirtLayers,1
;   skirtOutlines,2
;   skirtOffset,4
;   usePrimePillar,0
;   primePillarExtruder,999
;   primePillarWidth,12
;   primePillarLocation,7
;   primePillarSpeedMultiplier,1
;   useOozeShield,0
;   oozeShieldExtruder,999
;   oozeShieldOffset,2
;   oozeShieldOutlines,1
;   oozeShieldSidewallShape,1
;   oozeShieldSidewallAngle,30
;   oozeShieldSpeedMultiplier,1
;   infillExtruder,0
;   internalInfillPattern,Rectilinear
;   externalInfillPattern,Rectilinear
;   infillPercentage,80
;   outlineOverlapPercentage,15
;   infillExtrusionWidthPercentage,100
;   minInfillLength,5
;   infillLayerInterval,1
;   internalInfillAngles,45,-45
;   overlapInternalInfillAngles,0
;   externalInfillAngles,45,-45
;   generateSupport,1
;   supportExtruder,0
;   supportInfillPercentage,30
;   supportExtraInflation,0
;   supportBaseLayers,0
;   denseSupportExtruder,0
;   denseSupportLayers,0
;   denseSupportInfillPercentage,70
;   supportLayerInterval,1
;   supportHorizontalPartOffset,0.3
;   supportUpperSeparationLayers,1
;   supportLowerSeparationLayers,1
;   supportType,0
;   supportGridSpacing,2
;   maxOverhangAngle,45
;   supportAngles,0
;   temperatureName,Primary Extruder,Heated Bed
;   temperatureNumber,0,0
;   temperatureSetpointCount,2,2
;   temperatureSetpointLayers,1,2,1,2
;   temperatureSetpointTemperatures,210,190,60,50
;   temperatureStabilizeAtStartup,1,1
;   temperatureHeatedBed,0,1
;   fanLayers,1,2
;   fanSpeeds,0,100
;   blipFanToFullPower,0
;   adjustSpeedForCooling,1
;   minSpeedLayerTime,15
;   minCoolingSpeedSlowdown,20
;   increaseFanForCooling,0
;   minFanLayerTime,45
;   maxCoolingFanSpeed,100
;   increaseFanForBridging,0
;   bridgingFanSpeed,100
;   use5D,1
;   relativeEdistances,0
;   allowEaxisZeroing,1
;   independentExtruderAxes,0
;   includeM10123,0
;   stickySupport,1
;   applyToolheadOffsets,0
;   gcodeXoffset,0
;   gcodeYoffset,0
;   gcodeZoffset,0
;   overrideMachineDefinition,1
;   machineTypeOverride,0
;   strokeXoverride,220
;   strokeYoverride,220
;   strokeZoverride,250
;   originOffsetXoverride,-5
;   originOffsetYoverride,-5
;   originOffsetZoverride,0
;   homeXdirOverride,-1
;   homeYdirOverride,-1
;   homeZdirOverride,-1
;   flipXoverride,1
;   flipYoverride,-1
;   flipZoverride,1
;   toolheadOffsets,0,0|0,0|0,0|0,0|0,0|0,0
;   overrideFirmwareConfiguration,1
;   firmwareTypeOverride,RepRap (Marlin/Repetier/Sprinter)
;   GPXconfigOverride,r2
;   baudRateOverride,115200
;   overridePrinterModels,1
;   printerModelsOverride
;   startingGcode,G28 ; home all axes,G1 X5 Y10 Z0.2 F3000 ; get ready to prime,G92 E0 ; reset extrusion distance,G1 X160 E15 F600 ; prime nozzle,G1 X180 F5000 ; quick wipe
;   layerChangeGcode,
;   retractionGcode,
;   toolChangeGcode,
;   endingGcode,G28 X0 ; home X axis,M106 S0 ; turn off cooling fan,M104 S0 ; turn off extruder,M140 S0 ; turn off bed,M84 ; disable motors
;   exportFileFormat,gcode
;   celebration,0
;   celebrationSong,Random Song
;   postProcessing,
;   defaultSpeed,2000
;   outlineUnderspeed,0.5
;   solidInfillUnderspeed,0.8
;   supportUnderspeed,0.8
;   rapidXYspeed,4800
;   rapidZspeed,1000
;   minBridgingArea,50
;   bridgingExtraInflation,0
;   bridgingExtrusionMultiplier,1
;   bridgingSpeedMultiplier,1
;   useFixedBridgingAngle,0
;   fixedBridgingAngle,0
;   applyBridgingToPerimeters,0
;   filamentDiameters,1.75|1.75|1.75|1.75|1.75|1.75
;   filamentPricesPerKg,46|46|46|46|46|46
;   filamentDensities,1.25|1.25|1.25|1.25|1.25|1.25
;   useMinPrintHeight,0
;   minPrintHeight,0
;   useMaxPrintHeight,0
;   maxPrintHeight,0
;   useDiaphragm,0
;   diaphragmLayerInterval,20
;   robustSlicing,1
;   mergeAllIntoSolid,0
;   onlyRetractWhenCrossingOutline,1
;   retractBetweenLayers,1
;   useRetractionMinTravel,0
;   retractionMinTravel,3
;   retractWhileWiping,0
;   onlyWipeOutlines,1
;   avoidCrossingOutline,0
;   maxMovementDetourFactor,3
;   toolChangeRetractionDistance,12
;   toolChangeExtraRestartDistance,-0.5
;   toolChangeRetractionSpeed,600
;   externalThinWallType,0
;   internalThinWallType,2
;   thinWallAllowedOverlapPercentage,10
;   singleExtrusionMinLength,1
;   singleExtrusionMinPrintingWidthPercentage,50
;   singleExtrusionMaxPrintingWidthPercentage,200
;   singleExtrusionEndpointExtension,0.2
;   horizontalSizeCompensation,0
G90
M82
M106 S0
M140 S60
M190 S60
M104 S210 T0
M109 S210 T0
G28 ; home all axes
G1 X5 Y10 Z0.2 F3000 ; get ready to prime
G92 E0 ; reset extrusion distance
G1 X160 E15 F600 ; prime nozzle
G1 X180 F5000 ; quick wipe
; process Process1
; layer 1, Z = 0.240
T0
G92 E0.0000
G1 E-4.0000 F2400
; feature skirt
; tool H0.240 W0.525
G1 Z0.240 F1000
G1 X159.885 Y39.179 F4800
G1 E0.0000 F2400
G92 E0.0000
G1 X160.168 Y38.185 E0.0622 F1000
G1 X160.328 Y37.772 E0.0889
G1 X160.813 Y36.798 E0.1545
G1 X161.046 Y36.421 E0.1812
G1 X161.669 Y35.597 E0.2434
G1 X161.886 Y35.347 E0.2634
G1 X162.311 Y34.922 E0.2995
G1 X162.474 Y34.773 E0.3129
G1 X162.936 Y34.390 E0.3490
G1 X163.205 Y34.196 E0.3690
G1 X164.083 Y33.652 E0.4312
G1 X164.480 Y33.455 E0.4579
G1 X165.495 Y33.062 E0.5235
G1 X165.921 Y32.941 E0.5501
G1 X166.977 Y32.743 E0.6149
G1 X167.391 Y32.703 E0.6399
G1 X168.609 Y32.689 E0.7133
G1 X171.970 Y32.209 E0.9178
G1 X172.315 Y32.184 E0.9387
G1 X178.515 Y32.200 E1.3122
G1 X179.084 Y32.270 E1.3467
G1 X180.112 Y32.523 E1.4105
G1 X180.653 Y32.729 E1.4454
G1 X181.593 Y33.222 E1.5093
G1 X182.070 Y33.551 E1.5442
G1 X182.864 Y34.255 E1.6082
G1 X183.248 Y34.688 E1.6430
G1 X183.851 Y35.562 E1.7070
G1 X184.120 Y36.075 E1.7419
G1 X184.471 Y36.999 E1.8014
G1 X184.587 Y37.417 E1.8276
G1 X184.707 Y38.070 E1.8675
G1 X184.746 Y38.477 E1.8922
G1 X184.764 Y40.167 E1.9940
G1 X189.742 Y40.173 E2.2939
G1 X192.609 Y43.647 E2.5652
G1 X192.011 Y46.768 E2.7566
G1 X191.907 Y47.143 E2.7801
G1 X191.521 Y48.194 E2.8475
G1 X191.358 Y48.547 E2.8710
G1 X190.807 Y49.522 E2.9385
G1 X190.588 Y49.844 E2.9619
G1 X189.917 Y50.679 E3.0264
G1 X189.721 Y50.895 E3.0440
G1 X189.285 Y51.320 E3.0807
G1 X189.140 Y51.450 E3.0924
G1 X188.671 Y51.838 E3.1291
G1 X188.435 Y52.010 E3.1467
G1 X187.532 Y52.587 E3.2112
G1 X187.189 Y52.769 E3.2346
G1 X186.160 Y53.211 E3.3021
G1 X185.791 Y53.336 E3.3256
G1 X184.704 Y53.606 E3.3930
G1 X184.320 Y53.669 E3.4165
G1 X183.300 Y53.752 E3.4781
G1 X183.103 Y53.760 E3.4900
G1 X167.428 Y53.745 E4.4343
G1 X166.989 Y53.704 E4.4608
G1 X165.921 Y53.504 E4.5263
G1 X165.495 Y53.383 E4.5530
G1 X164.480 Y52.990 E4.6186
G1 X164.083 Y52.792 E4.6453
G1 X163.158 Y52.219 E4.7108
G1 X162.805 Y51.953 E4.7375
G1 X162.000 Y51.219 E4.8031
G1 X161.702 Y50.892 E4.8297
G1 X161.046 Y50.023 E4.8953
G1 X160.813 Y49.647 E4.9220
G1 X160.328 Y48.673 E4.9876
G1 X160.168 Y48.260 E5.0142
G1 X159.885 Y47.266 E5.0765
G1 X159.817 Y46.941 E5.0965
G1 X159.727 Y46.296 E5.1357
G1 X159.704 Y45.973 E5.1552
G1 X159.688 Y41.224 E5.4413
G1 X159.689 Y41.156 E5.4454
G1 X159.708 Y40.393 E5.4914
G1 X159.730 Y40.123 E5.5078
G1 X159.817 Y39.504 E5.5454
G1 X159.885 Y39.179 E5.5654
G92 E0.0000
G1 E-4.0000 F2400
G1 X160.395 Y39.305 F4800
G1 E0.0000 F2400
G92 E0.0000
G1 X160.666 Y38.352 E0.0597 F1000
G1 X160.808 Y37.985 E0.0834
G1 X161.272 Y37.054 E0.1461
G1 X161.480 Y36.718 E0.1698
G1 X162.077 Y35.928 E0.2295
G1 X162.271 Y35.705 E0.2473
G1 X162.673 Y35.302 E0.2816
G1 X162.819 Y35.170 E0.2935
G1 X163.257 Y34.806 E0.3278
G1 X163.497 Y34.633 E0.3456
G1 X164.339 Y34.112 E0.4053
G1 X164.692 Y33.936 E0.4290
G1 X165.662 Y33.560 E0.4917
G1 X166.041 Y33.452 E0.5154
G1 X167.051 Y33.263 E0.5773
G1 X167.420 Y33.227 E0.5996
G1 X168.649 Y33.213 E0.6737
G1 X172.025 Y32.731 E0.8792
G1 X172.333 Y32.710 E0.8977
G1 X178.483 Y32.725 E1.2682
G1 X178.989 Y32.787 E1.2990
G1 X179.955 Y33.025 E1.3589
G1 X180.437 Y33.208 E1.3900
G1 X181.321 Y33.672 E1.4501
G1 X181.745 Y33.965 E1.4812
G1 X182.492 Y34.627 E1.5413
G1 X182.834 Y35.013 E1.5723
G1 X183.401 Y35.834 E1.6324
G1 X183.641 Y36.290 E1.6635
G1 X183.972 Y37.163 E1.7197
G1 X184.075 Y37.535 E1.7430
G1 X184.187 Y38.142 E1.7802
G1 X184.221 Y38.505 E1.8021
G1 X184.244 Y40.691 E1.9338
G1 X189.494 Y40.698 E2.2501
G1 X192.047 Y43.791 E2.4917
G1 X191.499 Y46.648 E2.6669
G1 X191.407 Y46.982 E2.6878
G1 X191.036 Y47.993 E2.7527
G1 X190.890 Y48.307 E2.7736
G1 X190.360 Y49.245 E2.8385
G1 X190.166 Y49.532 E2.8593
G1 X189.518 Y50.338 E2.9216
G1 X189.343 Y50.530 E2.9373
G1 X188.926 Y50.936 E2.9723
G1 X188.797 Y51.052 E2.9828
G1 X188.349 Y51.423 E3.0178
G1 X188.139 Y51.576 E3.0335
G1 X187.268 Y52.133 E3.0958
G1 X186.962 Y52.295 E3.1166
G1 X185.972 Y52.721 E3.1815
G1 X185.644 Y52.831 E3.2024
G1 X184.598 Y53.091 E3.2673
G1 X184.256 Y53.147 E3.2882
G1 X183.268 Y53.228 E3.3479
G1 X183.093 Y53.235 E3.3585
G1 X167.453 Y53.220 E4.3007
G1 X167.062 Y53.183 E4.3243
G1 X166.041 Y52.993 E4.3869
G1 X165.662 Y52.885 E4.4106
G1 X164.692 Y52.509 E4.4733
G1 X164.339 Y52.333 E4.4970
G1 X163.455 Y51.786 E4.5597
G1 X163.140 Y51.548 E4.5834
G1 X162.372 Y50.848 E4.6461
G1 X162.106 Y50.556 E4.6698
G1 X161.480 Y49.726 E4.7325
G1 X161.272 Y49.391 E4.7562
G1 X160.808 Y48.460 E4.8189
G1 X160.666 Y48.093 E4.8426
G1 X160.395 Y47.140 E4.9023
G1 X160.334 Y46.851 E4.9201
G1 X160.249 Y46.241 E4.9572
G1 X160.229 Y45.954 E4.9746
G1 X160.213 Y41.226 E5.2594
G1 X160.214 Y41.165 E5.2630
G1 X160.232 Y40.421 E5.3078
G1 X160.252 Y40.180 E5.3224
G1 X160.334 Y39.594 E5.3581
G1 X160.395 Y39.305 E5.3759
G92 E0.0000
G1 E-4.0000 F2400
; feature inner perimeter
G1 X165.367 Y40.230 F4800
G1 E0.0000 F2400
G92 E0.0000
G1 X165.447 Y39.993 E0.0151 F750
G1 X165.548 Y39.764 E0.0302
G1 X165.670 Y39.545 E0.0453
G1 X165.812 Y39.338 E0.0604
G1 X165.972 Y39.146 E0.0755
G1 X166.149 Y38.969 E0.0905
G1 X166.341 Y38.808 E0.1056
G1 X166.548 Y38.667 E0.1207
G1 X166.767 Y38.545 E0.1358
G1 X166.996 Y38.444 E0.1509
G1 X167.234 Y38.364 E0.1660
G1 X167.477 Y38.307 E0.1811
G1 X167.725 Y38.272 E0.1962
G1 X167.994 Y38.260 E0.2123
G1 X169.032 Y38.260 E0.2749
G1 X172.532 Y37.760 E0.4879
G1 X175.020 Y37.760 E0.6377
G1 X175.057 Y38.192 E0.6639
G1 X174.614 Y38.268 E0.6909
G1 X174.233 Y38.379 E0.7149
G1 X173.868 Y38.527 E0.7386
G1 X173.520 Y38.713 E0.7623
G1 X173.194 Y38.933 E0.7860
G1 X172.893 Y39.186 E0.8097
G1 X172.619 Y39.469 E0.8335
G1 X172.376 Y39.779 E0.8572
G1 X172.167 Y40.113 E0.8809
G1 X171.993 Y40.466 E0.9046
G1 X171.857 Y40.836 E0.9283
G1 X171.760 Y41.217 E0.9520
G1 X171.703 Y41.607 E0.9758
G1 X171.687 Y42.000 E0.9995
G1 X171.712 Y42.393 E1.0232
G1 X171.778 Y42.781 E1.0469
G1 X171.883 Y43.161 E1.0706
G1 X172.027 Y43.527 E1.0944
G1 X172.209 Y43.877 E1.1181
G1 X172.426 Y44.205 E1.1418
G1 X172.675 Y44.510 E1.1655
G1 X172.955 Y44.786 E1.1892
G1 X173.263 Y45.033 E1.2130
G1 X173.594 Y45.246 E1.2367
G1 X173.945 Y45.423 E1.2604
G1 X174.313 Y45.564 E1.2841
G1 X174.694 Y45.665 E1.3078
G1 X175.082 Y45.726 E1.3316
G1 X175.455 Y45.745 E1.3540
G1 X186.525 Y45.745 E2.0209
G1 X186.241 Y46.299 E2.0584
G1 X186.082 Y46.555 E2.0765
G1 X185.903 Y46.797 E2.0947
G1 X185.705 Y47.025 E2.1129
G1 X185.489 Y47.235 E2.1310
G1 X185.256 Y47.427 E2.1492
G1 X185.009 Y47.600 E2.1674
G1 X184.749 Y47.752 E2.1855
G1 X184.476 Y47.882 E2.2037
G1 X184.195 Y47.990 E2.2219
G1 X183.905 Y48.075 E2.2400
G1 X183.610 Y48.135 E2.2582
G1 X183.311 Y48.172 E2.2763
G1 X182.993 Y48.185 E2.2955
G1 X167.994 Y48.185 E3.1991
G1 X167.725 Y48.172 E3.2153
G1 X167.477 Y48.138 E3.2304
G1 X167.234 Y48.081 E3.2455
G1 X166.996 Y48.001 E3.2605
G1 X166.767 Y47.900 E3.2756
G1 X166.548 Y47.778 E3.2907
G1 X166.341 Y47.636 E3.3058
G1 X166.149 Y47.476 E3.3209
G1 X165.972 Y47.299 E3.3360
G1 X165.812 Y47.106 E3.3511
G1 X165.670 Y46.900 E3.3662
G1 X165.548 Y46.681 E3.3813
G1 X165.447 Y46.452 E3.3963
G1 X165.367 Y46.214 E3.4114
G1 X165.310 Y45.971 E3.4265
G1 X165.276 Y45.723 E3.4416
G1 X165.263 Y45.454 E3.4578
G1 X165.263 Y41.252 E3.7109
G1 X165.277 Y40.714 E3.7434
G1 X165.310 Y40.474 E3.7580
G1 X165.367 Y40.230 E3.7730
G1 X175.926 Y38.201 F4800
G92 E0.0000
G1 X175.955 Y37.760 E0.0266 F750
G1 X177.952 Y37.760 E0.1469
G1 X178.122 Y37.770 E0.1571
G1 X178.266 Y37.797 E0.1660
G1 X178.405 Y37.840 E0.1748
G1 X178.538 Y37.900 E0.1836
G1 X178.664 Y37.976 E0.1924
G1 X178.779 Y38.066 E0.2012
G1 X178.882 Y38.169 E0.2100
G1 X178.972 Y38.284 E0.2188
G1 X179.048 Y38.410 E0.2276
G1 X179.108 Y38.543 E0.2364
G1 X179.152 Y38.683 E0.2453
G1 X179.178 Y38.826 E0.2541
G1 X179.188 Y38.996 E0.2643
G1 X179.188 Y39.337 E0.2848
G1 X178.211 Y39.337 E0.3437
G1 X177.932 Y39.074 E0.3668
G1 X177.619 Y38.834 E0.3906
G1 X177.284 Y38.628 E0.4143
G1 X176.928 Y38.459 E0.4380
G1 X176.557 Y38.327 E0.4617
G1 X176.175 Y38.234 E0.4854
G1 X175.926 Y38.201 E0.5006
; feature outer perimeter
G1 X175.742 Y38.706 F4800
G92 E0.0000
G1 X175.403 Y38.696 E0.0204 F500
G1 X175.090 Y38.719 E0.0393
G1 X174.732 Y38.781 E0.0612
G1 X174.405 Y38.876 E0.0817
G1 X174.091 Y39.003 E0.1021
G1 X173.792 Y39.163 E0.1226
G1 X173.511 Y39.353 E0.1430
G1 X173.251 Y39.571 E0.1634
G1 X173.015 Y39.815 E0.1838
G1 X172.806 Y40.082 E0.2043
G1 X172.626 Y40.369 E0.2247
G1 X172.476 Y40.673 E0.2451
G1 X172.359 Y40.991 E0.2656
G1 X172.276 Y41.320 E0.2860
G1 X172.227 Y41.656 E0.3064
G1 X172.213 Y41.994 E0.3268
G1 X172.234 Y42.333 E0.3473
G1 X172.291 Y42.667 E0.3677
G1 X172.382 Y42.994 E0.3881
G1 X172.506 Y43.309 E0.4086
G1 X172.662 Y43.610 E0.4290
G1 X172.849 Y43.893 E0.4494
G1 X173.064 Y44.156 E0.4698
G1 X173.305 Y44.394 E0.4903
G1 X173.570 Y44.606 E0.5107
G1 X173.855 Y44.790 E0.5311
G1 X174.157 Y44.943 E0.5516
G1 X174.474 Y45.063 E0.5720
G1 X174.802 Y45.150 E0.5924
G1 X175.137 Y45.203 E0.6128
G1 X175.469 Y45.220 E0.6329
G1 X187.178 Y45.220 E1.3383
G1 X187.171 Y45.270 E1.3413
G1 X187.093 Y45.605 E1.3620
G1 X186.987 Y45.933 E1.3828
G1 X186.855 Y46.251 E1.4035
G1 X186.698 Y46.557 E1.4242
G1 X186.517 Y46.850 E1.4450
G1 X186.312 Y47.127 E1.4657
G1 X186.086 Y47.386 E1.4864
G1 X185.839 Y47.626 E1.5072
G1 X185.574 Y47.845 E1.5279
G1 X185.292 Y48.042 E1.5487
G1 X184.995 Y48.216 E1.5694
G1 X184.684 Y48.365 E1.5901
G1 X184.363 Y48.488 E1.6109
G1 X184.032 Y48.584 E1.6316
G1 X183.695 Y48.654 E1.6524
G1 X183.353 Y48.696 E1.6731
G1 X183.004 Y48.710 E1.6941
G1 X167.982 Y48.710 E2.5991
G1 X167.677 Y48.696 E2.6175
G1 X167.381 Y48.655 E2.6355
G1 X167.090 Y48.586 E2.6535
G1 X166.806 Y48.491 E2.6716
G1 X166.533 Y48.370 E2.6896
G1 X166.271 Y48.225 E2.7076
G1 X166.025 Y48.056 E2.7256
G1 X165.795 Y47.865 E2.7436
G1 X165.583 Y47.653 E2.7616
G1 X165.392 Y47.423 E2.7796
G1 X165.223 Y47.177 E2.7976
G1 X165.078 Y46.915 E2.8157
G1 X164.957 Y46.642 E2.8337
G1 X164.862 Y46.358 E2.8517
G1 X164.794 Y46.067 E2.8697
G1 X164.752 Y45.771 E2.8877
G1 X164.738 Y45.466 E2.9061
G1 X164.738 Y41.246 E3.1603
G1 X164.753 Y40.671 E3.1950
G1 X164.794 Y40.378 E3.2128
G1 X164.862 Y40.086 E3.2309
G1 X164.957 Y39.803 E3.2489
G1 X165.078 Y39.529 E3.2669
G1 X165.223 Y39.268 E3.2849
G1 X165.392 Y39.022 E3.3029
G1 X165.583 Y38.792 E3.3209
